src/assets/scroll.svg

<svg height="512pt" viewBox="0 0 512 512" width="512pt" xmlns="http://www.w3.org/2000/svg"><path d="m458 381.113281v-217.445312c0-3.199219-1.53125-6.207031-4.117188-8.089844l-24.6875-17.949219 19.4375-12.148437c2.789063-1.742188 4.542969-4.746094 4.691407-8.03125.144531-3.285157-1.332031-6.433594-3.953125-8.417969l-18.039063-13.667969v-6.363281h16.667969c5.523438 0 10-4.476562 10-10v-20c0-32.53125-26.46875-59-59-59h-341c-.101562 0-.195312.0117188-.292969.015625-.230469-.0039062-.453125-.015625-.683593-.015625-15.746094 0-30.375 7.777344-41.191407 21.902344-10.210937 13.332031-15.832031 30.910156-15.832031 49.496094 0 33.414062 21.871094 60.601562 48.753906 60.601562h55.324219v158.5c0 3.390625 1.714844 6.546875 4.558594 8.390625l19.605469 12.710937-20.828126 18.609376c-2.121093 1.894531-3.335937 4.609374-3.335937 7.457031v86.664062c0 .539063.054687 1.066407.136719 1.582031-.082032.519532-.136719 1.046876-.136719 1.585938 0 25.441406 6.570313 46.855469 18.996094 61.925781 12.003906 14.554688 29.074219 22.574219 48.0625 22.574219h274.863281c36.394531 0 66-29.605469 66-66 0-32.292969-23.320312-59.226562-54-64.886719zm-375.925781-269.113281c2.945312-5.550781 4.613281-11.957031 4.613281-18.839844 0-23.054687-14.933594-39.160156-36.320312-39.160156-5.523438 0-10 4.476562-10 10s4.476562 10 10 10c10.21875 0 16.320312 7.164062 16.320312 19.160156 0 12.238282-9.242188 18.839844-17.933594 18.839844-15.585937 0-28.753906-18.59375-28.753906-40.601562 0-28.339844 16.609375-51.398438 37.023438-51.398438 14.140624 0 25.195312 4.394531 32.847656 13.058594 9.429687 10.667968 14.207031 27.976562 14.207031 51.441406v27.5zm56.429687 364.699219c-9.4375-11.445313-14.425781-28.457031-14.425781-49.199219 0-.539062-.054687-1.066406-.136719-1.585938.082032-.515624.136719-1.042968.136719-1.582031v-82.191406l27.25-24.351563c2.324219-2.074218 3.550781-5.117187 3.308594-8.226562-.238281-3.105469-1.914063-5.925781-4.527344-7.621094l-26.03125-16.875v-200.566406c0-28.371094-6.417969-50.066406-19.0625-64.5h293.984375c21.503906 0 39 17.496094 39 39v10h-16.667969c-5.519531 0-10 4.476562-10 10v21.332031c0 3.132813 1.46875 6.082031 3.964844 7.972657l10.433594 7.90625-19.695313 12.308593c-2.820312 1.761719-4.578125 4.808594-4.695312 8.128907-.117188 3.320312 1.425781 6.484374 4.113281 8.4375l32.546875 23.671874v211.242188h-254.234375c-.492187 0-.976563.046875-1.453125.117188-.960938-.070313-1.929688-.117188-2.910156-.117188-21.269532 0-37.933594 17.0625-37.933594 38.839844 0 23.058594 14.933594 39.160156 36.320312 39.160156 5.523438 0 10-4.476562 10-10s-4.476562-10-10-10c-10.21875 0-16.320312-7.164062-16.320312-19.160156 0-12.238282 9.242188-18.839844 17.933594-18.839844 15.585937 0 28.753906 18.59375 28.753906 40.601562 0 28.339844-16.605469 51.398438-37.019531 51.398438-13.09375 0-24.378907-5.289062-32.632813-15.300781zm307.496094 15.300781h-235.207031c.515625-.625 1.03125-1.25 1.53125-1.902344 9.585937-12.515625 15.125-28.777344 15.769531-46.097656h155.90625c5.523438 0 10-4.476562 10-10s-4.476562-10-10-10h-157.71875c-2.070312-9.03125-5.78125-17.214844-10.71875-24h230.4375c25.363281 0 46 20.636719 46 46s-20.636719 46-46 46zm0 0"/><path d="m189.359375 98c2.628906 0 5.199219-1.070312 7.070313-2.929688 1.859374-1.859374 2.929687-4.441406 2.929687-7.070312s-1.070313-5.210938-2.929687-7.070312c-1.871094-1.859376-4.441407-2.929688-7.070313-2.929688-2.640625 0-5.210937 1.070312-7.070313 2.929688-1.859374 1.859374-2.929687 4.441406-2.929687 7.070312s1.070313 5.210938 2.929687 7.070312c1.859376 1.859376 4.429688 2.929688 7.070313 2.929688zm0 0"/><path d="m232 98h144.355469c5.523437 0 10-4.476562 10-10s-4.476563-10-10-10h-144.355469c-5.523438 0-10 4.476562-10 10s4.476562 10 10 10zm0 0"/><path d="m189.355469 154h187c5.523437 0 10-4.476562 10-10s-4.476563-10-10-10h-187c-5.519531 0-10 4.476562-10 10s4.480469 10 10 10zm0 0"/><path d="m189.355469 210h187c5.523437 0 10-4.476562 10-10s-4.476563-10-10-10h-187c-5.519531 0-10 4.476562-10 10s4.480469 10 10 10zm0 0"/><path d="m189.355469 266h187c5.523437 0 10-4.476562 10-10s-4.476563-10-10-10h-187c-5.519531 0-10 4.476562-10 10s4.480469 10 10 10zm0 0"/><path d="m189.355469 322h187c5.523437 0 10-4.476562 10-10s-4.476563-10-10-10h-187c-5.519531 0-10 4.476562-10 10s4.480469 10 10 10zm0 0"/><path d="m422.871094 424c-2.632813 0-5.210938 1.070312-7.070313 2.929688-1.859375 1.859374-2.929687 4.441406-2.929687 7.070312s1.066406 5.210938 2.929687 7.070312c1.859375 1.859376 4.4375 2.929688 7.070313 2.929688 2.628906 0 5.207031-1.070312 7.066406-2.929688 1.863281-1.859374 2.933594-4.441406 2.933594-7.070312s-1.070313-5.210938-2.933594-7.070312c-1.859375-1.859376-4.4375-2.929688-7.066406-2.929688zm0 0"/></svg>

<?xml version="1.0" encoding="UTF-8" standalone="no"?>
<svg
   xmlns:dc="http://purl.org/dc/elements/1.1/"
   xmlns:cc="http://creativecommons.org/ns#"
   xmlns:rdf="http://www.w3.org/1999/02/22-rdf-syntax-ns#"
   xmlns:svg="http://www.w3.org/2000/svg"
   xmlns="http://www.w3.org/2000/svg"
   xmlns:sodipodi="http://sodipodi.sourceforge.net/DTD/sodipodi-0.dtd"
   xmlns:inkscape="http://www.inkscape.org/namespaces/inkscape"
   sodipodi:docname="scroll.svg"
   inkscape:version="1.0 (6e3e5246a0, 2020-05-07)"
   id="svg8"
   version="1.1"
   viewBox="0 0 210 297"
   height="297mm"
   width="210mm">
  <defs
     id="defs2" />
  <sodipodi:namedview
     inkscape:window-maximized="1"
     inkscape:window-y="27"
     inkscape:window-x="70"
     inkscape:window-height="1016"
     inkscape:window-width="1850"
     showgrid="false"
     inkscape:document-rotation="0"
     inkscape:current-layer="layer1"
     inkscape:document-units="mm"
     inkscape:cy="560"
     inkscape:cx="-131.42857"
     inkscape:zoom="0.35"
     inkscape:pageshadow="2"
     inkscape:pageopacity="0.0"
     borderopacity="1.0"
     bordercolor="#666666"
     pagecolor="#ffffff"
     id="base" />
  <metadata
     id="metadata5">
    <rdf:RDF>
      <cc:Work
         rdf:about="">
        <dc:format>image/svg+xml</dc:format>
        <dc:type
           rdf:resource="http://purl.org/dc/dcmitype/StillImage" />
        <dc:title></dc:title>
      </cc:Work>
    </rdf:RDF>
  </metadata>
  <g
     id="layer1"
     inkscape:groupmode="layer"
     inkscape:label="Layer 1">
    <g
       style="fill:#716040;fill-opacity:1"
       transform="matrix(0.35277779,0,0,0.35277779,15.794212,48.648104)"
       id="g42">
      <path
         style="fill:#716040;fill-opacity:1"
         d="M 458,381.11328 V 163.66797 c 0,-3.19922 -1.53125,-6.20703 -4.11719,-8.08985 l -24.6875,-17.94921 19.4375,-12.14844 c 2.78906,-1.74219 4.54297,-4.7461 4.69141,-8.03125 0.14453,-3.28516 -1.33203,-6.4336 -3.95313,-8.41797 L 431.33203,95.363281 V 89 H 448 c 5.52344,0 10,-4.476562 10,-10 V 59 C 458,26.46875 431.53125,0 399,0 H 58 C 57.898438,0 57.804688,0.0117188 57.707031,0.015625 57.476562,0.0117188 57.253906,0 57.023438,0 41.277344,0 26.648438,7.777344 15.832031,21.902344 5.621094,35.234375 0,52.8125 0,71.398438 0,104.8125 21.871094,132 48.753906,132 h 55.324224 v 158.5 c 0,3.39062 1.71484,6.54687 4.55859,8.39062 l 19.60547,12.71094 -20.82813,18.60938 c -2.12109,1.89453 -3.33593,4.60937 -3.33593,7.45703 v 86.66406 c 0,0.53906 0.0547,1.06641 0.13671,1.58203 -0.082,0.51953 -0.13671,1.04688 -0.13671,1.58594 0,25.44141 6.57031,46.85547 18.99609,61.92578 C 135.07812,503.98047 152.14844,512 171.13672,512 H 446 c 36.39453,0 66,-29.60547 66,-66 0,-32.29297 -23.32031,-59.22656 -54,-64.88672 z M 82.074219,112 C 85.019531,106.44922 86.6875,100.04297 86.6875,93.160156 86.6875,70.105469 71.753906,54 50.367188,54 c -5.523438,0 -10,4.476562 -10,10 0,5.523438 4.476562,10 10,10 C 60.585938,74 66.6875,81.164062 66.6875,93.160156 66.6875,105.39844 57.445312,112 48.753906,112 33.167969,112 20,93.40625 20,71.398438 20,43.058594 36.609375,20 57.023438,20 71.164062,20 82.21875,24.394531 89.871094,33.058594 99.300781,43.726562 104.07813,61.035156 104.07813,84.5 V 112 Z m 56.429691,364.69922 c -9.4375,-11.44531 -14.42578,-28.45703 -14.42578,-49.19922 0,-0.53906 -0.0547,-1.06641 -0.13672,-1.58594 0.082,-0.51562 0.13672,-1.04297 0.13672,-1.58203 v -82.19141 l 27.25,-24.35156 c 2.32421,-2.07422 3.55078,-5.11719 3.30859,-8.22656 -0.23828,-3.10547 -1.91406,-5.92578 -4.52734,-7.62109 l -26.03125,-16.875 V 84.5 c 0,-28.371094 -6.41797,-50.066406 -19.0625,-64.5 H 399 c 21.50391,0 39,17.496094 39,39 v 10 h -16.66797 c -5.51953,0 -10,4.476562 -10,10 v 21.33203 c 0,3.13281 1.46875,6.08203 3.96485,7.97266 l 10.43359,7.90625 -19.69531,12.30859 c -2.82032,1.76172 -4.57813,4.80859 -4.69532,8.12891 -0.11718,3.32031 1.42579,6.48437 4.11329,8.4375 L 438,168.75781 V 380 H 183.76563 c -0.49219,0 -0.97657,0.0469 -1.45313,0.11719 C 181.35156,380.04687 180.38281,380 179.40234,380 c -21.26953,0 -37.93359,17.0625 -37.93359,38.83984 0,23.0586 14.93359,39.16016 36.32031,39.16016 5.52344,0 10,-4.47656 10,-10 0,-5.52344 -4.47656,-10 -10,-10 -10.21875,0 -16.32031,-7.16406 -16.32031,-19.16016 0,-12.23828 9.24219,-18.83984 17.93359,-18.83984 15.58594,0 28.75391,18.59375 28.75391,40.60156 0,28.33985 -16.60547,51.39844 -37.01953,51.39844 -13.09375,0 -24.37891,-5.28906 -32.63281,-15.30078 z M 446,492 H 210.79297 c 0.51562,-0.625 1.03125,-1.25 1.53125,-1.90234 9.58594,-12.51563 15.125,-28.77735 15.76953,-46.09766 H 384 c 5.52344,0 10,-4.47656 10,-10 0,-5.52344 -4.47656,-10 -10,-10 H 226.28125 C 224.21094,414.96875 220.5,406.78516 215.5625,400 H 446 c 25.36328,0 46,20.63672 46,46 0,25.36328 -20.63672,46 -46,46 z m 0,0"
         id="path10" />
      <path
         style="fill:#716040;fill-opacity:1"
         d="m 189.35937,98 c 2.62891,0 5.19922,-1.070312 7.07032,-2.929688 1.85937,-1.859374 2.92968,-4.441406 2.92968,-7.070312 0,-2.628906 -1.07031,-5.210938 -2.92968,-7.070312 C 194.55859,79.070312 191.98828,78 189.35937,78 c -2.64062,0 -5.21093,1.070312 -7.07031,2.929688 -1.85937,1.859374 -2.92969,4.441406 -2.92969,7.070312 0,2.628906 1.07032,5.210938 2.92969,7.070312 C 184.14844,96.929688 186.71875,98 189.35937,98 Z m 0,0"
         id="path12" />
      <path
         style="fill:#716040;fill-opacity:1"
         d="m 232,98 h 144.35547 c 5.52344,0 10,-4.476562 10,-10 0,-5.523438 -4.47656,-10 -10,-10 H 232 c -5.52344,0 -10,4.476562 -10,10 0,5.523438 4.47656,10 10,10 z m 0,0"
         id="path14" />
      <path
         style="fill:#716040;fill-opacity:1"
         d="m 189.35547,154 h 187 c 5.52344,0 10,-4.47656 10,-10 0,-5.52344 -4.47656,-10 -10,-10 h -187 c -5.51953,0 -10,4.47656 -10,10 0,5.52344 4.48047,10 10,10 z m 0,0"
         id="path16" />
      <path
         style="fill:#716040;fill-opacity:1"
         d="m 189.35547,210 h 187 c 5.52344,0 10,-4.47656 10,-10 0,-5.52344 -4.47656,-10 -10,-10 h -187 c -5.51953,0 -10,4.47656 -10,10 0,5.52344 4.48047,10 10,10 z m 0,0"
         id="path18" />
      <path
         style="fill:#716040;fill-opacity:1"
         d="m 189.35547,266 h 187 c 5.52344,0 10,-4.47656 10,-10 0,-5.52344 -4.47656,-10 -10,-10 h -187 c -5.51953,0 -10,4.47656 -10,10 0,5.52344 4.48047,10 10,10 z m 0,0"
         id="path20" />
      <path
         style="fill:#716040;fill-opacity:1"
         d="m 189.35547,322 h 187 c 5.52344,0 10,-4.47656 10,-10 0,-5.52344 -4.47656,-10 -10,-10 h -187 c -5.51953,0 -10,4.47656 -10,10 0,5.52344 4.48047,10 10,10 z m 0,0"
         id="path22" />
      <path
         style="fill:#716040;fill-opacity:1"
         d="m 422.87109,424 c -2.63281,0 -5.21093,1.07031 -7.07031,2.92969 -1.85937,1.85937 -2.92969,4.4414 -2.92969,7.07031 0,2.62891 1.06641,5.21094 2.92969,7.07031 1.85938,1.85938 4.4375,2.92969 7.07031,2.92969 2.62891,0 5.20703,-1.07031 7.06641,-2.92969 1.86328,-1.85937 2.93359,-4.4414 2.93359,-7.07031 0,-2.62891 -1.07031,-5.21094 -2.93359,-7.07031 C 428.07812,425.07031 425.5,424 422.87109,424 Z m 0,0"
         id="path24" />
    </g>
  </g>
</svg>
